;FLAVOR:Marlin
;TIME:4991
;Filament used: 8.02132m
;Layer height: 0.3
;MINX:6.8
;MINY:26.8
;MINZ:0.3
;MAXX:143.2
;MAXY:123.2
;MAXZ:12
;Generated with Cura_SteamEngine 4.8.0
M104 S200
M105
M109 S200
M82 ;absolute extrusion mode
G28 ;Home
G1 Z15.0 F6000 ;Move the platform down 15mm
;Prime the extruder
G92 E0
G1 F200 E3
G92 E0
G92 E0
G92 E0
G1 F1500 E-6.5
;LAYER_COUNT:40
;LAYER:0
M107
G0 F3600 X10.069 Y27.054 Z0.3
;TYPE:SKIRT
G1 F1500 E0
G1 F1800 X10.554 Y26.91 E0.02524
G1 X11.129 Y26.831 E0.0542
G1 X11.418 Y26.813 E0.06864
G1 X12.32 Y26.8 E0.11365
G1 X137.852 Y26.801 E6.37647
G1 X138.523 Y26.811 E6.40995
G1 X139.379 Y26.914 E6.45296
G1 X139.601 Y26.955 E6.46422
G1 X140.088 Y27.091 E6.48945
G1 X140.545 Y27.301 E6.51454
G1 X141 Y27.555 E6.54054
G1 X141.42 Y27.835 E6.56572
G1 X141.856 Y28.25 E6.59575
G1 X142.187 Y28.631 E6.62093
G1 X142.487 Y29.038 E6.64616
G1 X142.756 Y29.576 E6.67617
G1 X142.947 Y30.07 E6.70259
G1 X143.091 Y30.554 E6.72778
G1 X143.17 Y31.137 E6.75713
G1 X143.187 Y31.416 E6.77108
G1 X143.2 Y32.296 E6.81499
G1 X143.199 Y37.853 E7.09223
G1 X143.19 Y38.521 E7.12556
G1 X143.089 Y39.365 E7.16797
G1 X143.042 Y39.613 E7.18056
G1 X142.904 Y40.099 E7.20576
G1 X142.701 Y40.54 E7.22998
G1 X142.448 Y40.995 E7.25596
G1 X142.168 Y41.416 E7.28118
G1 X141.75 Y41.856 E7.31146
G1 X141.369 Y42.187 E7.33664
G1 X140.962 Y42.487 E7.36187
G1 X140.423 Y42.756 E7.39192
G1 X139.931 Y42.946 E7.41823
G1 X139.446 Y43.09 E7.44347
G1 X138.868 Y43.169 E7.47258
G1 X138.581 Y43.187 E7.48692
G1 X137.73 Y43.2 E7.52939
G1 X133.417 Y43.2 E7.74456
G1 X130.62 Y43.24 E7.88412
G1 X127.903 Y43.355 E8.01979
G1 X125.156 Y43.55 E8.15719
G1 X122.452 Y43.818 E8.29275
G1 X119.728 Y44.166 E8.42976
G1 X117.028 Y44.591 E8.56612
G1 X114.319 Y45.094 E8.70358
G1 X111.695 Y45.659 E8.83749
G1 X108.983 Y46.323 E8.97679
G1 X106.376 Y47.041 E9.1117
G1 X103.729 Y47.851 E9.2498
G1 X101.134 Y48.726 E9.38643
G1 X98.597 Y49.662 E9.52134
G1 X96.021 Y50.696 E9.65982
G1 X93.527 Y51.781 E9.79551
G1 X91.043 Y52.947 E9.93241
G1 X88.606 Y54.173 E10.06852
G1 X86.192 Y55.476 E10.20538
G1 X83.806 Y56.853 E10.34281
G1 X81.495 Y58.275 E10.47819
G1 X79.678 Y59.457 E10.58633
G1 X64.316 Y69.698 E11.50744
G1 X62.053 Y71.254 E11.64445
G1 X59.846 Y72.864 E11.78074
G1 X57.7 Y74.525 E11.91613
G1 X55.548 Y76.29 E12.05499
G1 X53.519 Y78.054 E12.18912
G1 X51.474 Y79.934 E12.32771
G1 X49.533 Y81.821 E12.46277
G1 X47.608 Y83.805 E12.60068
G1 X45.769 Y85.809 E12.73638
G1 X43.972 Y87.882 E12.87325
G1 X42.23 Y90.011 E13.01049
G1 X40.578 Y92.152 E13.14541
G1 X38.953 Y94.383 E13.28311
G1 X37.401 Y96.647 E13.42005
G1 X35.92 Y98.942 E13.55632
G1 X34.15 Y101.889 E13.72783
G1 X23.525 Y120.292 E14.78799
G1 X23.191 Y120.852 E14.82052
G1 X22.631 Y121.595 E14.86694
G1 X22.497 Y121.751 E14.8772
G1 X22.133 Y122.102 E14.90243
G1 X21.4 Y122.583 E14.94617
G1 X21.23 Y122.68 E14.95593
G1 X20.77 Y122.89 E14.98116
G1 X20.291 Y123.024 E15.00597
G1 X19.768 Y123.127 E15.03257
G1 X19.201 Y123.187 E15.06101
G1 X18.33 Y123.2 E15.10447
G1 X12.147 Y123.199 E15.41294
G1 X11.481 Y123.19 E15.44617
G1 X10.624 Y123.087 E15.48924
G1 X10.393 Y123.043 E15.50097
G1 X9.906 Y122.906 E15.52621
G1 X9.46 Y122.701 E15.5507
G1 X9.005 Y122.448 E15.57667
G1 X8.584 Y122.168 E15.6019
G1 X8.144 Y121.75 E15.63218
G1 X7.813 Y121.369 E15.65735
G1 X7.513 Y120.962 E15.68258
G1 X7.244 Y120.424 E15.71259
G1 X7.053 Y119.93 E15.73901
G1 X6.909 Y119.446 E15.76421
G1 X6.83 Y118.865 E15.79346
G1 X6.813 Y118.584 E15.8075
G1 X6.8 Y117.681 E15.85256
G1 X6.801 Y32.149 E20.11977
G1 X6.811 Y31.477 E20.1533
G1 X6.916 Y30.608 E20.19697
G1 X6.961 Y30.374 E20.20886
G1 X7.101 Y29.889 E20.23404
G1 X7.299 Y29.46 E20.25761
G1 X7.552 Y29.005 E20.28359
G1 X7.832 Y28.584 E20.30881
G1 X8.25 Y28.144 E20.33909
G1 X8.631 Y27.813 E20.36427
G1 X9.038 Y27.513 E20.38949
G1 X9.577 Y27.244 E20.41955
G1 X10.069 Y27.054 E20.44586
G1 F1500 E13.94586
;MESH:5474d616-9540-455c-bd25-f79f6f026e24.stl
G0 F3600 X11.409 Y29.342
G0 X11.523 Y30.62
G0 X21.543 Y49.194
G0 X21.636 Y49.228
;TYPE:WALL-INNER
G1 F1500 E20.44586
G1 F1800 X21.349 Y50.106 E20.49195
G1 X21.122 Y51.003 E20.53811
G1 X20.96 Y51.913 E20.58422
G1 X20.862 Y52.833 E20.63038
G1 X20.83 Y53.756 E20.67646
G1 X20.862 Y54.68 E20.72258
G1 X20.96 Y55.599 E20.76869
G1 X21.122 Y56.51 E20.81485
G1 X21.349 Y57.407 E20.86102
G1 X21.636 Y58.285 E20.9071
G1 X21.987 Y59.141 E20.95326
G1 X22.397 Y59.97 E20.9994
G1 X22.864 Y60.768 E21.04553
G1 X23.386 Y61.531 E21.09165
G1 X23.96 Y62.256 E21.13778
G1 X24.584 Y62.937 E21.18387
G1 X25.255 Y63.574 E21.23002
G1 X25.97 Y64.162 E21.27621
G1 X26.724 Y64.697 E21.32233
G1 X27.513 Y65.179 E21.36846
G1 X28.335 Y65.602 E21.41458
G1 X29.185 Y65.968 E21.46075
G1 X30.058 Y66.271 E21.50686
G1 X30.95 Y66.514 E21.55298
G1 X31.857 Y66.692 E21.59909
G1 X32.775 Y66.806 E21.64524
G1 X33.698 Y66.854 E21.69136
G1 X34.623 Y66.839 E21.73751
G1 X35.544 Y66.757 E21.78364
G1 X36.457 Y66.611 E21.82977
G1 X37.357 Y66.4 E21.87589
G1 X38.241 Y66.127 E21.92205
G1 X39.102 Y65.793 E21.96812
G1 X39.939 Y65.398 E22.01429
G1 X40.744 Y64.945 E22.06038
G1 X41.517 Y64.435 E22.10658
G1 X42.251 Y63.874 E22.15267
G1 X42.944 Y63.262 E22.1988
G1 X43.593 Y62.602 E22.24498
G1 X44.193 Y61.898 E22.29113
G1 X44.741 Y61.154 E22.33723
G1 X45.237 Y60.373 E22.38338
G1 X45.674 Y59.559 E22.42948
G1 X46.054 Y58.717 E22.47556
G1 X46.374 Y57.849 E22.52172
G1 X46.632 Y56.961 E22.56785
G1 X46.826 Y56.056 E22.61403
G1 X46.956 Y55.141 E22.66014
G1 X47.022 Y54.219 E22.70625
G1 X47.022 Y53.294 E22.7524
G1 X46.956 Y52.372 E22.79852
G1 X46.826 Y51.457 E22.84463
G1 X46.632 Y50.552 E22.8908
G1 X46.374 Y49.664 E22.93694
G1 X46.054 Y48.796 E22.98309
G1 X45.674 Y47.954 E23.02918
G1 X45.237 Y47.14 E23.07527
G1 X44.741 Y46.359 E23.12143
G1 X44.193 Y45.614 E23.16757
G1 X43.593 Y44.911 E23.21368
G1 X42.944 Y44.251 E23.25986
G1 X42.251 Y43.639 E23.30599
G1 X41.517 Y43.077 E23.35211
G1 X40.744 Y42.568 E23.39828
G1 X39.939 Y42.115 E23.44437
G1 X39.102 Y41.72 E23.49054
G1 X38.241 Y41.386 E23.53661
G1 X37.357 Y41.113 E23.58277
G1 X36.457 Y40.902 E23.62889
G1 X35.544 Y40.756 E23.67502
G1 X34.623 Y40.674 E23.72115
G1 X33.698 Y40.658 E23.76731
G1 X32.775 Y40.707 E23.81342
G1 X31.857 Y40.821 E23.85957
G1 X30.95 Y40.999 E23.90568
G1 X30.058 Y41.242 E23.95181
G1 X29.185 Y41.545 E23.99791
G1 X28.335 Y41.911 E24.04408
G1 X27.513 Y42.334 E24.0902
G1 X26.724 Y42.816 E24.13633
G1 X25.97 Y43.351 E24.18245
G1 X25.255 Y43.939 E24.22864
G1 X24.584 Y44.576 E24.2748
G1 X23.96 Y45.257 E24.32088
G1 X23.386 Y45.982 E24.36701
G1 X22.864 Y46.745 E24.41314
G1 X22.397 Y47.543 E24.45926
G1 X21.987 Y48.372 E24.50541
G1 X21.636 Y49.228 E24.55156
G0 F3600 X21.543 Y49.194
G0 X21.083 Y50.995
G0 X20.823 Y52.831
G0 X20.823 Y54.682
G0 X21.083 Y56.518
G0 X21.599 Y58.298
G0 X22.362 Y59.988
G0 X23.354 Y61.554
G0 X24.556 Y62.965
G0 X42.869 Y79.42
G0 X42.938 Y79.491
G1 F1800 X42.274 Y80.266 E24.60248
G1 X41.779 Y81.078 E24.64992
G1 X19.938 Y118.907 E26.82919
G1 X19.705 Y119.184 E26.84725
G1 X19.44 Y119.337 E26.86252
G1 X19.078 Y119.4 E26.88085
G1 X11.544 Y119.399 E27.25672
G1 X11.194 Y119.337 E27.27446
G1 X10.93 Y119.184 E27.28968
G1 X10.729 Y118.944 E27.3053
G1 X10.613 Y118.626 E27.32219
G1 X10.6 Y118.479 E27.32955
G1 X10.601 Y31.543 E31.6668
G1 X10.663 Y31.194 E31.68449
G1 X10.816 Y30.93 E31.69971
G1 X11.056 Y30.729 E31.71533
G1 X11.374 Y30.613 E31.73222
G1 X11.521 Y30.6 E31.73958
G1 X138.456 Y30.601 E38.07239
G1 X138.806 Y30.663 E38.09013
G1 X139.07 Y30.816 E38.10535
G1 X139.271 Y31.056 E38.12097
G1 X139.387 Y31.374 E38.13785
G1 X139.4 Y31.521 E38.14522
G1 X139.399 Y38.456 E38.49121
G1 X139.337 Y38.806 E38.50894
G1 X139.184 Y39.07 E38.52416
G1 X138.944 Y39.271 E38.53978
G1 X138.626 Y39.387 E38.55667
G1 X138.479 Y39.4 E38.56403
G1 X104.593 Y39.4 E40.25461
G1 X104.032 Y39.429 E40.28264
G1 X102.998 Y39.636 E40.33525
G1 X102.444 Y39.834 E40.3646
G1 X101.537 Y40.317 E40.41586
G1 X43.706 Y78.871 E43.88344
G1 X42.938 Y79.491 E43.93269
G0 F3600 X42.869 Y79.42
G0 X30.421 Y83.189
G0 X29.158 Y83.916
G0 X25.647 Y89.992
G0 X15.104 Y100.645
G0 X15.055 Y100.559
G1 F1800 X15.61 Y100.092 E43.96887
G1 X16.121 Y99.258 E44.01767
G1 X25.798 Y82.495 E44.98333
G1 X26.026 Y81.865 E45.01676
G1 X26.026 Y81.135 E45.05318
G1 X25.776 Y80.445 E45.08979
G1 X25.305 Y79.884 E45.12633
G1 X24.67 Y79.517 E45.16292
G1 X24.004 Y79.4 E45.19666
G1 X13.937 Y79.401 E45.69891
G1 X13.278 Y79.517 E45.73229
G1 X12.644 Y79.884 E45.76884
G1 X12.173 Y80.445 E45.80538
G1 X11.932 Y81.109 E45.84062
G1 X11.9 Y81.473 E45.85885
G1 X11.901 Y98.795 E46.72305
G1 X12.017 Y99.454 E46.75643
G1 X12.384 Y100.088 E46.79298
G1 X12.945 Y100.559 E46.82953
G1 X13.635 Y100.809 E46.86614
G1 X14.365 Y100.809 E46.90256
G1 X15.055 Y100.559 E46.93917
G0 F3600 X15.104 Y100.645
G0 X16.177 Y107.328
G0 X18.092 Y113.963
G0 X18.188 Y113.938
G1 F1800 X18.361 Y114.038 E46.94914
G1 X20.785 Y115.438 E47.0888
G1 X20.958 Y115.538 E47.09877
G1 X21.058 Y115.365 E47.1052
G1 X23.539 Y111.067 E47.35279
G1 X23.767 Y110.438 E47.38617
G1 X23.767 Y109.707 E47.42264
G1 X23.517 Y109.017 E47.45926
G1 X23.063 Y108.477 E47.49445
G1 X22.763 Y108.266 E47.51275
G1 X21.033 Y107.269 E47.61237
G1 X20.636 Y106.937 E47.63819
G1 X20.392 Y106.509 E47.66277
G1 X20.311 Y106.031 E47.68695
G1 X20.391 Y105.574 E47.7101
G1 X20.605 Y105.15 E47.7338
G1 X30.484 Y88.041 E48.71944
G1 X30.816 Y87.646 E48.74519
G1 X31.235 Y87.406 E48.76928
G1 X31.718 Y87.323 E48.79373
G1 X32.184 Y87.406 E48.81734
G1 X32.435 Y87.523 E48.83116
G1 X34.195 Y88.539 E48.93255
G1 X34.825 Y88.767 E48.96597
G1 X35.556 Y88.767 E49.00244
G1 X36.245 Y88.517 E49.03901
G1 X36.785 Y88.063 E49.0742
G1 X36.996 Y87.763 E49.0925
G1 X39.558 Y83.324 E49.3482
G1 X36.788 Y81.724 E49.5078
G1 X35.262 Y84.365 E49.65997
G1 X35.031 Y84.64 E49.67789
G1 X34.762 Y84.794 E49.69335
G1 X34.458 Y84.849 E49.70877
G1 X34.124 Y84.789 E49.7257
G1 X33.984 Y84.724 E49.7334
G1 X31.789 Y83.457 E49.85984
G1 X31.16 Y83.228 E49.89324
G1 X30.427 Y83.228 E49.92981
G1 X29.738 Y83.479 E49.96639
G1 X29.188 Y83.942 E50.00226
G1 X28.853 Y84.466 E50.03329
G1 X16.444 Y105.961 E51.27155
G1 X16.216 Y106.591 E51.30497
G1 X16.216 Y107.322 E51.34144
G1 X16.466 Y108.011 E51.37801
G1 X16.92 Y108.551 E51.41321
G1 X17.22 Y108.762 E51.43151
G1 X19.365 Y110 E51.55506
G1 X19.642 Y110.233 E51.57312
G1 X19.795 Y110.498 E51.58839
G1 X19.849 Y110.803 E51.60384
G1 X19.79 Y111.135 E51.62067
G1 X19.72 Y111.286 E51.62897
G1 X18.288 Y113.765 E51.7718
G1 X18.188 Y113.938 E51.77824
G0 F3600 X18.092 Y113.963
G0 X20.968 Y115.576
G0 X65.236 Y40.373
G0 X66.298 Y39.424
G0 X66.332 Y39.517
G1 F1800 X65.699 Y39.884 E51.81474
G1 X65.268 Y40.395 E51.84809
G1 X48.573 Y69.31 E53.51386
G1 X48.35 Y69.924 E53.54645
G1 X48.338 Y70.629 E53.58162
G1 X48.561 Y71.296 E53.61671
G1 X48.989 Y71.854 E53.6518
G1 X49.58 Y72.239 E53.68699
G1 X50.262 Y72.409 E53.72205
G1 X50.961 Y72.344 E53.75708
G1 X51.545 Y72.082 E53.78901
G1 X94.849 Y43.212 E56.38556
G1 X95.329 Y42.753 E56.41869
G1 X95.649 Y42.114 E56.45435
G1 X95.74 Y41.406 E56.48996
G1 X95.586 Y40.708 E56.52562
G1 X95.21 Y40.101 E56.56124
G1 X94.653 Y39.655 E56.59684
G1 X94.014 Y39.431 E56.63063
G1 X93.659 Y39.4 E56.6484
G1 X66.991 Y39.401 E57.97888
G1 X66.332 Y39.517 E58.01226
G0 F3600 X66.298 Y39.424
G0 X66.669 Y36.756
G0 X66.762 Y36.722
G1 F1800 X67.129 Y37.356 E58.04881
G1 X67.69 Y37.827 E58.08535
G1 X68.353 Y38.068 E58.12055
G1 X68.718 Y38.1 E58.13883
G1 X96.433 Y38.099 E59.52153
G1 X97.092 Y37.983 E59.55492
G1 X97.727 Y37.616 E59.59151
G1 X98.197 Y37.055 E59.62802
G1 X98.439 Y36.391 E59.66328
G1 X98.47 Y36.025 E59.6816
G1 X98.469 Y33.937 E59.78577
G1 X98.353 Y33.278 E59.81916
G1 X97.986 Y32.644 E59.85571
G1 X97.425 Y32.173 E59.89225
G1 X96.762 Y31.932 E59.92744
G1 X96.397 Y31.9 E59.94572
G1 X68.682 Y31.901 E61.32843
G1 X68.023 Y32.017 E61.36181
G1 X67.388 Y32.384 E61.39841
G1 X66.918 Y32.945 E61.43492
G1 X66.676 Y33.609 E61.47018
G1 X66.645 Y33.975 E61.4885
G1 X66.646 Y36.063 E61.59267
G1 X66.762 Y36.722 E61.62606
G0 F3600 X66.669 Y36.756
G0 X67.671 Y37.861
G0 X96.436 Y38.138
G0 X100.765 Y37.913
G0 X100.815 Y37.827
G1 F1800 X101.479 Y38.068 E61.6613
G1 X101.843 Y38.1 E61.67953
G1 X136.063 Y38.099 E63.38677
G1 X136.722 Y37.983 E63.42015
G1 X137.356 Y37.616 E63.4567
G1 X137.827 Y37.055 E63.49325
G1 X138.068 Y36.391 E63.52849
G1 X138.1 Y36.026 E63.54677
G1 X138.099 Y33.937 E63.65099
G1 X137.983 Y33.278 E63.68437
G1 X137.616 Y32.644 E63.72092
G1 X137.055 Y32.173 E63.75746
G1 X136.391 Y31.932 E63.7927
G1 X136.027 Y31.9 E63.81094
G1 X101.807 Y31.901 E65.51818
G1 X101.148 Y32.017 E65.55156
G1 X100.514 Y32.384 E65.58811
G1 X100.043 Y32.945 E65.62465
G1 X99.802 Y33.609 E65.65989
G1 X99.77 Y33.974 E65.67817
G1 X99.771 Y36.063 E65.7824
G1 X99.889 Y36.722 E65.8158
G1 X100.254 Y37.355 E65.85225
G1 X100.815 Y37.827 E65.88883
G0 F3600 X101.018 Y37.475
;TYPE:WALL-OUTER
G1 F1800 X101.566 Y37.674 E65.91791
G1 X101.861 Y37.7 E65.93269
G1 X136.028 Y37.699 E67.63729
G1 X136.583 Y37.601 E67.6654
G1 X137.095 Y37.305 E67.69491
G1 X137.475 Y36.852 E67.72441
G1 X137.674 Y36.304 E67.7535
G1 X137.7 Y36.009 E67.76827
G1 X137.699 Y33.972 E67.8699
G1 X137.601 Y33.417 E67.89801
G1 X137.305 Y32.905 E67.92752
G1 X136.852 Y32.525 E67.95702
G1 X136.304 Y32.326 E67.9861
G1 X136.009 Y32.3 E68.00088
G1 X101.842 Y32.301 E69.70548
G1 X101.287 Y32.399 E69.7336
G1 X100.775 Y32.695 E69.7631
G1 X100.395 Y33.148 E69.7926
G1 X100.196 Y33.696 E69.82169
G1 X100.17 Y33.991 E69.83646
G1 X100.171 Y36.028 E69.93809
G1 X100.27 Y36.583 E69.96621
G1 X100.565 Y37.094 E69.99565
G1 X101.018 Y37.475 E70.02518
G0 F3600 X101.205 Y37.543
G0 X101.034 Y38.013
G0 X98.509 Y36.026
G0 X98.508 Y33.934
G0 X98.016 Y32.619
G0 X96.77 Y31.893
G0 X68.679 Y31.862
G0 X67.267 Y32.374
G0 X67.649 Y32.695
G1 F1800 X67.27 Y33.148 E70.05465
G1 X67.07 Y33.696 E70.08375
G1 X67.045 Y33.992 E70.09857
G1 X67.046 Y36.028 E70.20015
G1 X67.144 Y36.583 E70.22827
G1 X67.44 Y37.095 E70.25777
G1 X67.893 Y37.475 E70.28727
G1 X68.44 Y37.674 E70.31631
G1 X68.736 Y37.7 E70.33113
G1 X96.398 Y37.699 E71.7112
G1 X96.953 Y37.601 E71.73931
G1 X97.466 Y37.305 E71.76886
G1 X97.845 Y36.852 E71.79833
G1 X98.045 Y36.304 E71.82743
G1 X98.07 Y36.008 E71.84225
G1 X98.069 Y33.972 E71.94383
G1 X97.971 Y33.417 E71.97195
G1 X97.675 Y32.905 E72.00145
G1 X97.222 Y32.525 E72.03095
G1 X96.675 Y32.326 E72.05999
G1 X96.379 Y32.3 E72.07482
G1 X68.717 Y32.301 E73.45488
G1 X68.162 Y32.399 E73.483
G1 X67.649 Y32.695 E73.51255
G0 F3600 X67.521 Y32.848
G0 X67.139 Y32.527
G0 X66.662 Y33.533
G0 X66.221 Y39.466
G0 X66.471 Y39.899
G1 F1800 X65.96 Y40.195 E73.54201
G1 X65.597 Y40.626 E73.57012
G1 X48.937 Y69.48 E75.23238
G1 X48.749 Y69.998 E75.25987
G1 X48.739 Y70.567 E75.28826
G1 X48.919 Y71.106 E75.31661
G1 X49.265 Y71.556 E75.34493
G1 X49.742 Y71.867 E75.37334
G1 X50.293 Y72.004 E75.40167
G1 X50.858 Y71.952 E75.42997
G1 X51.351 Y71.731 E75.45693
G1 X94.598 Y42.899 E78.05006
G1 X95.002 Y42.512 E78.07797
G1 X95.261 Y41.996 E78.10678
G1 X95.334 Y41.424 E78.13555
G1 X95.21 Y40.861 E78.16431
G1 X94.906 Y40.37 E78.19312
G1 X94.456 Y40.01 E78.22187
G1 X93.929 Y39.825 E78.24973
G1 X93.642 Y39.8 E78.26411
G1 X67.026 Y39.801 E79.59198
G1 X66.471 Y39.899 E79.6201
G0 F3600 X66.298 Y39.999
G0 X66.048 Y39.567
G0 X32.772 Y40.668
G0 X30.941 Y40.961
G0 X29.508 Y41.403
G0 X27.481 Y42.239
G0 X27.709 Y42.683
G1 F1800 X26.944 Y43.15 E79.66482
G1 X26.213 Y43.669 E79.70954
G1 X25.52 Y44.239 E79.75431
G1 X24.87 Y44.856 E79.79902
G1 X24.265 Y45.517 E79.84373
G1 X23.708 Y46.219 E79.88844
G1 X23.202 Y46.959 E79.93316
G1 X22.749 Y47.733 E79.9779
G1 X22.352 Y48.537 E80.02264
G1 X22.012 Y49.366 E80.06734
G1 X21.733 Y50.217 E80.11202
G1 X21.513 Y51.087 E80.15679
G1 X21.356 Y51.969 E80.20149
G1 X21.261 Y52.861 E80.24624
G1 X21.23 Y53.756 E80.29092
G1 X21.261 Y54.652 E80.33565
G1 X21.356 Y55.543 E80.38035
G1 X21.513 Y56.426 E80.42509
G1 X21.733 Y57.296 E80.46987
G1 X22.012 Y58.147 E80.51455
G1 X22.352 Y58.976 E80.55925
G1 X22.749 Y59.78 E80.60398
G1 X23.202 Y60.554 E80.64873
G1 X23.708 Y61.294 E80.69345
G1 X24.265 Y61.996 E80.73816
G1 X24.87 Y62.657 E80.78286
G1 X25.52 Y63.274 E80.82758
G1 X26.213 Y63.844 E80.87234
